X:1
T: Fiddler Play the Light Strathspey
C:
R:Strathspey
Q: 128
K:Am
M:4/4
L:1/16
|:E2|AA3 c3d e3d e^f3|g4 d3B G3A BAG2|AA3 c3d e3d e^f3|g4 d3B A6E2|
AA3 c3d e3d e^f3|g4 d3B G3A BAG2|AA3 c3d e3d e^f3|g4 d3B A6E2|
c4 A4 c3c A4|c4 B3A G3A BG3|c4 A4 c3c A4|e4 d3B A8|
c4 A4 c3c A4|c3B A3G A3G E3G|A3B c3d e3d ef3|g4 d3B A6:|
